app/component-library/components/Icons/Icon/assets/copy.svg

<svg width="24" height="24" viewBox="0 0 24 24" fill="none" xmlns="http://www.w3.org/2000/svg">
<path d="M16.2808 12.9V17.1C16.2808 20.6 14.8808 22 11.3808 22H7.18076C3.68076 22 2.28076 20.6 2.28076 17.1V12.9C2.28076 9.4 3.68076 8 7.18076 8H11.3808C14.8808 8 16.2808 9.4 16.2808 12.9Z" fill="currentColor"/>
<path d="M17.3808 2H13.1808C10.0977 2 8.65174 3.09409 8.3505 5.73901C8.28748 6.29235 8.74575 6.75 9.30267 6.75H11.3808C15.5808 6.75 17.5308 8.7 17.5308 12.9V14.9781C17.5308 15.535 17.9884 15.9933 18.5417 15.9303C21.1867 15.629 22.2808 14.1831 22.2808 11.1V6.9C22.2808 3.4 20.8808 2 17.3808 2Z" fill="currentColor"/>
</svg>

<svg xmlns="http://www.w3.org/2000/svg" width="24" height="24" viewBox="0 0 24 24" fill="none"><path d="M16.28 12.9v4.2c0 3.5-1.4 4.9-4.9 4.9h-4.2c-3.5 0-4.9-1.4-4.9-4.9v-4.2c0-3.5 1.4-4.9 4.9-4.9h4.2c3.5 0 4.9 1.4 4.9 4.9z" fill="currentColor"/><path d="M17.38 2h-4.2c-3.082 0-4.528 1.094-4.83 3.739-.063.553.396 1.011.953 1.011h2.078c4.2 0 6.15 1.95 6.15 6.15v2.078c0 .557.457 1.015 1.01.952 2.646-.301 3.74-1.747 3.74-4.83V6.9c0-3.5-1.4-4.9-4.9-4.9z" fill="currentColor"/></svg>
